X:12899
T:Pasudoble (ver. Antn de Fonduveiga)
C:Trad.
Z:Mtodu de Gaita
M:2/4
L:1/8
Q:1/4=150
K:C
CD|: E3 D|C2 DE|F2 D2|D2 E2|F2 G2|B,2 D2|D2 C2|C2 CD|
|E3 D|C2 DE|F2 D2|D2 EF|G2 B,2|C2 D2|C4-|1 C2 CE :|2 C2 A2|
|: G4|F2 A2|G2 G2|G2 A2|G4|F2 G2|D2 D2|D2 A2|
|G4|F2 c2|G2 G2|G2 A2|G4|B,2 D2|C4-|1 C2 A2 :|2 C2 CD||
